assets/icons/country-flags/VU.svg

<svg fill="none" xmlns="http://www.w3.org/2000/svg" viewBox="0 0 24 24"><g clip-path="url(#a)"><path d="M24 12c0-.53-.035-1.053-.102-1.565H10.435l-6.92-6.92c-4.687 4.686-4.687 12.284 0 16.97l6.92-6.92h13.463c.067-.512.102-1.034.102-1.565Z" fill="#000"/><path d="m23.997 12.273-.002.072.002-.072Zm-.012.328-.005.071.005-.07Zm-.017.262-.007.103.008-.103Zm-.039-2.17.013.121-.013-.121Zm.051.638.005.07-.005-.07Zm.015.327.002.072-.002-.072Zm-.035-.62a8.7 8.7 0 0 1 .008.102l-.007-.102Z" fill="#fff"/><path d="m23.898 10.435.016.123C23.2 4.611 18.14 0 12 0a11.962 11.962 0 0 0-8.485 3.515l6.92 6.92h13.463Z" fill="#FF0062"/><path d="M23.898 13.566H10.435l-6.92 6.92A11.963 11.963 0 0 0 12 24.002c6.14 0 11.201-4.61 11.914-10.558l-.016.123Z" fill="#6DA544"/><path d="m23.942 13.188-.013.122.013-.122Z" fill="#fff"/><path d="M23.97 11.139Zm-.056-.579Zm.027.253ZM24 12Zm-.018.67Zm-.021.294Zm-.031.344Zm.067-1.581Zm-.012-.327Zm.009.943Z" fill="#000"/><path d="M23.99 11.474H9.994l-7.19-7.187a6.131 6.131 0 0 0-.64.83l6.876 6.879-6.88 6.88c.135.243.432.601.64.835l7.194-7.193H23.99a12.209 12.209 0 0 0-.002-1.044Z" fill="#FFD293"/><path d="M2.914 14.558v-1.005a1.821 1.821 0 0 0 1.82-1.819c0-.71-.578-1.287-1.288-1.287a.878.878 0 0 0-.877.877c0 .31.252.56.561.56a.317.317 0 0 0 .317-.316h1.005c0 .729-.593 1.322-1.322 1.322a1.567 1.567 0 0 1-1.566-1.566c0-1.037.845-1.882 1.882-1.882a2.295 2.295 0 0 1 2.292 2.292 2.827 2.827 0 0 1-2.824 2.824Z" fill="#FFD293"/></g><defs><clipPath id="a"><path fill="#fff" d="M0 0h24v24H0z"/></clipPath></defs></svg>

<svg width="24" height="24" fill="none" xmlns="http://www.w3.org/2000/svg"><g clip-path="url(#a)"><path d="M24 12c0-.53-.035-1.053-.102-1.565H10.435l-6.92-6.92c-4.687 4.686-4.687 12.284 0 16.97l6.92-6.92h13.463c.067-.512.102-1.034.102-1.565Z" fill="#000"/><path d="m23.997 12.273-.002.072.002-.072ZM23.985 12.601l-.005.071.005-.07ZM23.968 12.863l-.007.103.008-.103ZM23.929 10.693l.013.121-.013-.121ZM23.98 11.331l.005.07-.005-.07ZM23.995 11.658l.002.072-.002-.072ZM23.96 11.038a8.7 8.7 0 0 1 .008.102l-.007-.102Z" fill="#fff"/><path d="m23.898 10.435.016.123C23.2 4.611 18.14 0 12 0a11.962 11.962 0 0 0-8.485 3.515l6.92 6.92h13.463Z" fill="#FF0062"/><path d="M23.898 13.566H10.435l-6.92 6.92A11.963 11.963 0 0 0 12 24.002c6.14 0 11.201-4.61 11.914-10.558l-.016.123Z" fill="#6DA544"/><path d="m23.942 13.188-.013.122.013-.122Z" fill="#fff"/><path d="M23.97 11.139ZM23.914 10.56ZM23.941 10.813ZM24 12ZM23.982 12.67ZM23.961 12.964ZM23.93 13.308ZM23.997 11.727ZM23.985 11.4ZM23.994 12.343Z" fill="#000"/><path d="M23.99 11.474H9.994l-7.19-7.187a6.131 6.131 0 0 0-.64.83l6.876 6.879-6.88 6.88c.135.243.432.601.64.835l7.194-7.193H23.99a12.209 12.209 0 0 0-.002-1.044Z" fill="#FFD293"/><path d="M2.914 14.558v-1.005a1.821 1.821 0 0 0 1.82-1.819c0-.71-.578-1.287-1.288-1.287a.878.878 0 0 0-.877.877c0 .31.252.56.561.56a.317.317 0 0 0 .317-.316h1.005c0 .729-.593 1.322-1.322 1.322a1.567 1.567 0 0 1-1.566-1.566c0-1.037.845-1.882 1.882-1.882a2.295 2.295 0 0 1 2.292 2.292 2.827 2.827 0 0 1-2.824 2.824Z" fill="#FFD293"/></g><defs><clipPath id="a"><path fill="#fff" d="M0 0h24v24H0z"/></clipPath></defs></svg>
